X:1
T:Title
%%score ( 1 2 3 ) ( 4 5 )
L:1/8
Q:1/4=135
M:6/4
K:Bb
V:1 treble nm="Grand Piano, Soprano"
V:2 treble 
V:3 treble 
V:4 bass nm="Choir Pad, Make Jesus Glad"
V:5 bass 
V:1
 [DF]2 [DF]4 [DF]2 [B,D]2 [CE]2 | [DF]2 [EG]4- [EG]2 [DF]4 | [DF][DF] [EF]4 [EF]2 [EF]2 [EG]2 | %3
w: By~Herbert~G.~Tovey * * * *|||
 [EA]2 [DB]4- [DB]4- [DB]3/2 z/ | [FB][FB] [Fc]2 [Fc]2 [Fc]2 [Fc]2 [FB]2 | %5
w: ||
 [Fc]2 [Fd]4- [Fd]2 [DB]4 | z6 z2 .G4 | [EB]2 [Ec]4- [Ec]4- [Ec]3/2 z/ | z2 B4 z6 | %9
w: ||||
 [DG]2 [EA]4- [EA]2 [EA]4 | z6 z2 A4 | [EG]2 [DF]4- [DF]4- [DF]3/2 z/ | z6 z2 .B4 | %13
w: ||||
 [FB]2 [Ec]4- [Ec]2 [EG]4 | [_DG]2 [=DF]2 [DF]2 [FB]2 [=Ec]4 | z2 B4- B6- | B6 z6 |] %17
w: ||||
V:2
 x12 | x12 | x12 | x12 | x12 | x12 | [DA]2 [EG]4 [EG]2 E2- [EA]2 | x12 | [Fd][Ec] .D4 z2 B2 [DA]2 | %9
 x12 | [EF][EG] [EA]2 [FA]2 [FA]2 F2 E2 | x12 | [B,D][CE] [DF]2 [DG]2 [DA]2 D2- [DA]2 | x12 | x12 | %15
 [Ec]2 D4 E2 D4- | D6 z6 |] %17
V:3
 x12 | x12 | x12 | x12 | x12 | x12 | x12 | x12 | z4 D2- D4 z2 | x12 | x12 | x12 | x12 | x12 | x12 | %15
 x12 | x12 |] %17
V:4
 [B,,B,]2 [B,,B,]4 [B,,B,]2 [B,,F,]2 [B,,F,]2 | [B,,B,]2 [B,,B,]4- [B,,B,]2 [B,,B,]4 | %2
 [B,,B,][B,,B,] [F,A,]4 [F,A,]2 [F,A,]2 [F,B,]2 | [F,C]2 [B,,B,]4- [B,,B,]4- [B,,B,]3/2 z/ | %4
 [D,B,][D,B,] [F,A,]2 [F,A,]2 [F,A,]2 [E,A,]2 [D,B,]2 | [C,A,]2 [B,,B,]4- [B,,B,]2 [B,,F,]4 | %6
 z6 z2 C4 | [G,C]2 [F,A,]4- [F,A,]4- [F,A,]3/2 z/ | z2 B,2 F,2- F,4 z2 | %9
 [B,,F,]2 [C,F,]4 F,2 [F,C]4 | [F,A,][F,B,] [F,C]2 [F,D]2 [F,E]2 ED C2 | %11
 [F,A,]2 [B,,B,]4- [B,,B,]4- [B,,B,]3/2 z/ | z6 z2 .F,4 | [D,B,]2 [E,G,]4- [E,G,]2 [E,B,]4 | %14
 [=E,B,]2 [F,B,]2 [F,B,]2 [D,B,]2 [C,B,]4 | [F,A,]2 B,4 G,2 F,4- | F,4 z2 z6 |] %17
V:5
 x12 | x12 | x12 | x12 | x12 | x12 | [B,,B,]2 [C,B,]4 [C,B,]2 B,2 A,2 | x12 | %8
 [F,A,][F,A,] B,,4 z2 B,,2 [B,,F,]2 | x12 | z6 z2 F,4 | x12 | %12
 [B,,F,]2 [B,,B,]2 [B,,B,]2 [B,,B,]2 B,,2- [B,,B,]2 | x12 | x12 | z2 B,,4- B,,6- | B,,4 z2 z6 |] %17

